X: 81
T: 77. QUADRILLE
B: Sam Bayard, "Hill Country Tunes" 1944 #77
S: Played by Robert Crow, Claysville, PA, Sept 13, 1943.  Learned in that region.
R: jig
M: 6/8
L: 1/8
Z: 2010 John Chambers <jc:trillian.mit.edu>
K: C
G- |\
GEF cGE | FEF d2c | B/c/BA GAB | cde cBA |
G^/FE cGE | FEF d2c | B/c/BA GAB | c2 ((3d/c/B/) cz ||
z |
e3 g/^f/ag | e2c ABA | G3 g^fe | d3- d2z |
e3 g/^f/ag | e2c ABA | G^FG A2B | cGE [c2E2] |]

%%sep 2 1 500
%%sep 1 1 500

